X: 43571
T: Young Francis Mooney
R: jig
M: 6/8
K: Eminor
|:E3 G2A|BAB d2A|FDD ADD|F/G/AF FED|
E3 G2A|BAB d2e|fed eaf|fee e2B:|
|:e3 fdB|e3 fdB|d/B/cd dBA|dcd Bcd|
e3 fdB|e3 g2a|bag f/g/af|gee e3:|

